X: 16036
T: Green Cottage, The
R: polka
M: 2/4
K: Edorian
|:B/A/|GE EE/D/|B,E E>G|FD D>E|FG A/B/B/A/|
GE EE/D/|B,E E>F|GB AF|E2 E:|
|:B/A/|Be e>d|eB BA|Be ed|e2 e>f|
ge fg/f/|eB B>A|GE EF|GA B:|

